X:155
T:Novelty,The. JC.154
T:March of the Men of Devon
T:Ymdiath Gwyr Dyfnant
R:Country-dance
S:John Clare,Poet,Helpstone (1793-1864)
N:MR.Time si 2/3 in Ms. Bars 4,10,18,26, the 3 qu’s in Ms are given here
N:as one qu & 2 semiqu’s.Bar 6,294 qu’s in ms given as
N:semiqu’s.Bar15,31,3 crots in ms given as qu & 2 semiqu’s.Bar 18,4th
N:note crot in ms.Bar30 all notes qu’s in MS.
N:CGP. I have re-beamed bars 17 & 20.
O:England
A:Northamptonshire
Z:vmp.P. Headford
M:2/4
L:1/16
Q:1/4=110
K:D
“_see notes”A2G2|\
F2DD D2DD|D2F2A2d2|c2AA A2AA|A2c2e2g2|!
f4d2df|edcB g2f2|efed cdcB|ABAG FGFE|!
F2DD D2DD|D2F2A2d2|c2AA A2AA|A2c2e2g2|!
f2d2d2f2|edcB g2f2|efge d2c2|d2dd:|!
|:f2g2|a2ff f2ff|f2d2f2a2|f2ee e2ee|e2c2e2g2|\
f2dd d2f2|!
edcB g2f2|efed cdcB|ABAG FGFE|F2DD D2DD|!
D2F2A2d2|c2AA A2AA|A2c2e2g2|f2d2d2f2|\
edcB g2f2|efdc Bcec|d2dd|]

